src/assets/icons/myBatches.svg

<svg width="77" height="79" viewBox="0 0 77 79" fill="none" xmlns="http://www.w3.org/2000/svg">
<path d="M34.3798 0.197376C27.9517 0.966953 22.2306 3.12177 16.9595 6.77726C9.70857 11.7923 4.4632 18.834 1.73767 27.2095C0.863442 29.9415 0.0277826 34.2511 0.00207003 36.3033C-0.0107863 37.1884 0.0277826 37.3166 0.362046 37.7527C0.850585 38.394 1.24913 38.5479 3.01044 38.7275C7.17588 39.1379 10.8528 40.1127 14.9411 41.8699C22.2177 45.0124 29.3401 51.1818 33.737 58.1465C34.1741 58.8391 35.0226 60.3654 35.6397 61.5198C36.8739 63.8927 37.0925 64.1235 38.1338 64.1235C39.0338 64.1235 39.4452 63.7003 40.3837 61.7892C45.7705 50.9509 56.2998 42.383 67.5876 39.6382C69.2718 39.2277 71.9459 38.8045 73.7201 38.6634C75.0057 38.5608 75.5585 38.3427 75.8928 37.7784C76.2656 37.1627 76.317 36.6753 76.1628 35.2388C74.8771 23.5027 68.7318 13.2545 59.0639 6.71312C56.2612 4.81483 53.8314 3.57069 50.5787 2.33936C45.4105 0.389771 39.4066 -0.405457 34.3798 0.197376ZM42.3121 3.82721C48.2775 4.72505 53.8699 7.16204 59.0639 11.1254C60.4652 12.2028 63.4607 15.2041 64.7849 16.8587C68.4618 21.4377 70.956 26.8504 71.8688 32.1605C72.3059 34.777 72.3573 34.5846 71.2516 34.6872C69.0147 34.8796 65.9549 35.5466 63.3707 36.3675C55.5027 38.9071 47.2747 44.7174 41.7207 51.6564C41.2579 52.2464 40.2294 53.6573 39.458 54.8117L38.0438 56.9023L37.0153 55.3504C34.4184 51.4255 32.1814 48.8218 29.0444 46.0513C23.5548 41.1902 17.5766 37.8168 11.2385 35.9699C9.4643 35.4568 6.26308 34.8027 4.88746 34.6744L4.01323 34.5974L4.10323 33.8792C4.29607 32.1989 4.9646 29.3002 5.56885 27.5686C7.09874 23.0923 9.19432 19.4368 12.3184 15.807C15.5068 12.1002 19.2608 9.21425 23.7605 6.98248C27.5274 5.13549 31.5128 3.98113 35.5754 3.58351C37.2596 3.4296 40.3323 3.53221 42.3121 3.82721Z" fill="black" fill-opacity="0.7"/>
<path d="M36.8225 6.73881C36.6425 6.76446 36.154 6.85425 35.7297 6.93121C34.6626 7.1236 33.0299 7.80339 32.0528 8.45753C31.6028 8.76536 30.7929 9.45798 30.2658 9.99669C27.0131 13.3187 26.3189 18.1542 28.5045 22.3612C29.8672 24.9906 32.2071 26.8889 35.1126 27.7226C35.9611 27.9663 36.4111 28.0176 38.1081 28.0048C39.908 28.0048 40.2166 27.9663 41.2579 27.6456C44.1377 26.7735 46.1819 25.0676 47.5446 22.4382C49.6788 18.3081 49.1003 13.5624 46.0276 10.1634C44.7805 8.77819 42.4793 7.4186 40.6665 6.98251C39.8309 6.79012 37.4139 6.6362 36.8225 6.73881ZM38.9438 10.2532C39.7923 10.6637 39.908 10.9843 39.908 13.0365C39.908 14.0113 39.9466 14.922 39.9851 15.0759C40.0494 15.3324 40.1137 15.3452 41.875 15.2939C44.022 15.217 44.5106 15.3324 45.1019 16.0635C45.4234 16.4611 45.4876 16.6664 45.4876 17.2435C45.5005 17.9875 45.2819 18.4107 44.6134 18.8981C44.292 19.1418 44.0477 19.1675 42.0807 19.206L39.908 19.2444V21.3095C39.908 23.118 39.8823 23.413 39.6637 23.7721C38.9566 24.9136 37.0539 24.9778 36.3468 23.8875C36.154 23.6054 36.1025 23.1564 36.0511 21.4121L35.9868 19.2957L33.9298 19.2316C31.5 19.1546 31.1657 19.0392 30.7543 18.1157C30.3172 17.1409 30.5743 16.2559 31.4743 15.5889C31.7957 15.3452 32.0142 15.3196 33.9041 15.3068L35.9868 15.2939L36.0125 13.3187C36.0383 11.0228 36.154 10.6765 37.0025 10.2532C37.671 9.93255 38.2624 9.93255 38.9438 10.2532Z" fill="black" fill-opacity="0.7"/>
<path d="M37.131 34.3537C36.6039 34.6743 36.3982 35.3157 36.4625 36.3674L36.5139 37.1883H35.6397C34.0455 37.1883 33.4027 37.7013 33.5056 38.8685C33.557 39.3559 33.6598 39.6125 33.917 39.8562C34.2255 40.164 34.3669 40.2025 35.344 40.2538L36.4368 40.2923V41.0234C36.4368 42.4342 36.8611 43.1525 37.761 43.3064C38.031 43.3449 38.4038 43.3064 38.6095 43.2166C39.2138 42.9729 39.4195 42.5369 39.4966 41.344L39.5609 40.2923L40.628 40.241C41.5408 40.2025 41.7336 40.164 42.0164 39.8946C42.1964 39.7151 42.4021 39.3944 42.4664 39.1507C42.6207 38.5992 42.4407 37.9579 42.0164 37.5603C41.7336 37.2909 41.5408 37.2524 40.6022 37.2011L39.5223 37.1626V36.3674C39.5223 35.29 39.3295 34.6872 38.8924 34.3665C38.4167 34.0459 37.6582 34.033 37.131 34.3537Z" fill="black" fill-opacity="0.7"/>
<path d="M1.892 49.0399C1.33918 49.2964 0.953491 49.9377 0.953491 50.6175C0.953491 51.5153 1.90486 54.2217 3.17763 56.9409C5.37606 61.6353 8.84726 66.2656 12.5756 69.4721C23.1692 78.566 37.0668 81.3236 50.5145 76.9883C55.7984 75.2953 61.0695 72.1015 65.0807 68.1767C68.3462 64.9958 70.6475 61.8148 72.6916 57.6463C74.2215 54.5295 75.1729 51.9129 75.1857 50.7586C75.1986 49.9249 75.1857 49.8736 74.7229 49.4247C74.3244 49.0142 74.1444 48.9373 73.553 48.8859C71.2774 48.7064 63.5765 52.1823 58.4083 55.7352C53.3686 59.1983 48.6246 63.4438 45.2434 67.5225C43.9707 69.0489 41.6822 72.3067 40.7823 73.8844L39.9723 75.2824L38.0568 75.244L36.1412 75.2183L35.2669 73.7561C32.8885 69.8056 30.5744 66.8684 27.3089 63.6105C20.9579 57.2743 12.807 52.0027 5.51748 49.5401C3.6276 48.9116 2.52196 48.7577 1.892 49.0399ZM7.70305 54.863C11.3542 56.3637 16.7539 59.8396 21.0736 63.4694C22.8735 64.9958 26.3575 68.523 27.746 70.2417C28.4274 71.1011 29.4045 72.3965 29.8802 73.1276C30.6001 74.1922 30.7287 74.4615 30.5487 74.4872C30.4201 74.5129 29.623 74.3205 28.7617 74.0768C24.2491 72.7813 20.1351 70.7163 16.5353 67.9458C14.9797 66.753 12.3313 64.1749 11.11 62.6614C9.7472 60.9811 8.17873 58.5185 7.17594 56.5048C6.64883 55.453 6.22457 54.5423 6.22457 54.4782C6.22457 54.3371 6.77739 54.4782 7.70305 54.863ZM68.9119 56.6074C67.1891 60.0576 65.0293 63.0462 62.458 65.5345C58.3183 69.5363 53.1372 72.4478 47.159 74.1281C46.4005 74.3333 45.7191 74.5129 45.6548 74.5129C45.372 74.5129 47.0947 71.9476 48.7661 69.8954C50.1674 68.1767 53.5486 64.8034 55.5285 63.1488C58.4083 60.7503 61.9566 58.3004 65.0421 56.5817C67.4077 55.2734 69.7475 54.273 69.8504 54.5295C69.8761 54.5936 69.4518 55.53 68.9119 56.6074Z" fill="black" fill-opacity="0.7"/>
</svg>

<svg xmlns="http://www.w3.org/2000/svg" width="77" height="79" fill="none"><path fill="#000" fill-opacity=".7" d="M34.38.197c-6.428.77-12.15 2.925-17.42 6.58C9.708 11.792 4.462 18.834 1.737 27.21.863 29.941.028 34.25.002 36.302c-.013.885.026 1.014.36 1.45.489.641.887.795 2.648.974 4.166.41 7.843 1.386 11.931 3.143 7.277 3.142 14.4 9.312 18.796 16.277.437.692 1.286 2.218 1.903 3.373 1.234 2.373 1.453 2.604 2.494 2.604.9 0 1.311-.424 2.25-2.335C45.77 50.951 56.3 42.383 67.588 39.64c1.684-.411 4.358-.835 6.132-.976 1.286-.102 1.838-.32 2.173-.885.373-.615.424-1.103.27-2.54-1.286-11.735-7.431-21.983-17.1-28.525-2.802-1.898-5.232-3.142-8.484-4.374C45.41.39 39.407-.405 34.379.197Zm7.932 3.63c5.966.898 11.558 3.335 16.752 7.298 1.401 1.078 4.397 4.08 5.72 5.734 3.678 4.579 6.172 9.991 7.085 15.301.437 2.617.488 2.425-.617 2.527-2.237.193-5.297.86-7.881 1.68-7.868 2.54-16.096 8.35-21.65 15.29-.463.59-1.492 2-2.263 3.155l-1.414 2.09-1.029-1.552c-2.597-3.925-4.834-6.528-7.97-9.299-5.49-4.86-11.468-8.234-17.807-10.081-1.774-.513-4.975-1.167-6.35-1.296l-.875-.077.09-.718c.193-1.68.862-4.579 1.466-6.31 1.53-4.477 3.625-8.132 6.75-11.762C15.506 12.1 19.26 9.214 23.76 6.982c3.767-1.847 7.753-3 11.815-3.398 1.685-.154 4.757-.052 6.737.243Z"/><path fill="#000" fill-opacity=".7" d="M36.822 6.739c-.18.025-.668.115-1.092.192-1.067.193-2.7.872-3.677 1.527-.45.307-1.26 1-1.787 1.539-3.253 3.322-3.947 8.157-1.761 12.364 1.362 2.63 3.702 4.528 6.608 5.362.848.243 1.298.295 2.995.282 1.8 0 2.109-.039 3.15-.36 2.88-.872 4.924-2.577 6.287-5.207 2.134-4.13 1.555-8.876-1.517-12.275-1.247-1.385-3.549-2.744-5.361-3.18-.836-.193-3.253-.347-3.845-.244Zm2.122 3.514c.848.41.964.731.964 2.784 0 .974.039 1.885.077 2.039.064.256.129.27 1.89.218 2.147-.077 2.636.038 3.227.77.321.397.386.602.386 1.18.013.744-.206 1.167-.875 1.654-.321.244-.565.27-2.532.308l-2.173.038v2.066c0 1.808-.026 2.103-.244 2.462-.707 1.142-2.61 1.206-3.317.116-.193-.283-.245-.732-.296-2.476l-.064-2.116-2.057-.064c-2.43-.077-2.764-.193-3.176-1.116-.437-.975-.18-1.86.72-2.527.322-.244.54-.27 2.43-.282l2.083-.013.026-1.975c.025-2.296.141-2.643.99-3.066.668-.32 1.26-.32 1.94 0ZM37.131 34.354c-.527.32-.733.962-.669 2.013l.052.821h-.874c-1.595 0-2.237.513-2.134 1.68.051.488.154.744.411.988.308.308.45.346 1.427.398l1.093.038v.731c0 1.411.424 2.13 1.324 2.283.27.039.643 0 .848-.09.605-.243.81-.68.888-1.872l.064-1.052 1.067-.051c.913-.038 1.106-.077 1.388-.346.18-.18.386-.5.45-.744a1.633 1.633 0 0 0-.45-1.59c-.282-.27-.475-.309-1.414-.36l-1.08-.038v-.796c0-1.077-.192-1.68-.63-2-.475-.321-1.234-.334-1.761-.013ZM1.892 49.04c-.553.256-.939.898-.939 1.578 0 .897.952 3.604 2.225 6.323 2.198 4.694 5.67 9.325 9.398 12.531 10.593 9.094 24.49 11.852 37.938 7.516 5.284-1.693 10.555-4.886 14.567-8.811 3.265-3.181 5.566-6.362 7.61-10.53 1.53-3.117 2.482-5.734 2.495-6.888.013-.834 0-.885-.463-1.334-.399-.41-.579-.488-1.17-.54-2.276-.179-9.976 3.297-15.145 6.85-5.04 3.463-9.783 7.709-13.165 11.787-1.272 1.527-3.56 4.785-4.46 6.362l-.81 1.398-1.916-.038-1.916-.026-.874-1.462c-2.379-3.95-4.693-6.888-7.958-10.145-6.351-6.337-14.502-11.608-21.792-14.07-1.89-.63-2.995-.783-3.625-.501Zm5.811 5.823c3.651 1.5 9.05 4.977 13.37 8.606 1.8 1.527 5.285 5.054 6.673 6.773.681.86 1.659 2.154 2.134 2.886.72 1.064.849 1.334.669 1.36-.129.025-.926-.168-1.787-.411-4.513-1.296-8.627-3.36-12.227-6.131-1.555-1.193-4.204-3.771-5.425-5.285-1.363-1.68-2.931-4.142-3.934-6.156-.527-1.052-.951-1.963-.951-2.027 0-.14.552 0 1.478.385Zm61.209 1.744c-1.723 3.45-3.883 6.44-6.454 8.927-4.14 4.002-9.32 6.914-15.299 8.594-.758.205-1.44.385-1.504.385-.283 0 1.44-2.565 3.111-4.618 1.401-1.718 4.783-5.092 6.763-6.746 2.88-2.399 6.428-4.849 9.513-6.567 2.366-1.309 4.706-2.309 4.808-2.053.026.065-.398 1.001-.938 2.078Z"/></svg>
